X:233
T:Dean’s Hornpipe,aka TS.233
M:C
L:1/8
Q:1/2=90
C:untitled in MS. cf#136
S:Thomas Sands’ MS,1810,Lincolnshire
R:.hornpipe
O:England;Lincolnshire
Z:vmp.Ruairidh Greig, 2011
K:Bb
z2|B2df edcB|ceAc BAGF|EGcE DFBD|CBAc BAGF|
B2df edcB|ceAc BAGF|EGcE DFBD|CBAcB2:|
|:f2|geBGE2g2|fdBFD2f2|ecGEC2ec|dBFDB,2FE|
DFBd EGce|FBdf GBeg|fdBd ec (3AcA|B2B2B2:|]

